X:1
T:Title
%%score { ( 1 4 5 ) | ( 2 3 6 ) }
L:1/8
Q:1/4=108
M:4/4
K:Ab
V:1 treble nm="Grand Piano"
V:4 treble 
V:5 treble 
V:2 bass 
V:3 bass 
V:6 bass 
V:1
 [CE]4 [DF]3 [CE] | [CA]6 [Ec]2 | [FB]2 [FA]2 [EG]2 [DF]2 | [DF]4 [CE]4 | z4 d4 | c6 z2 | %6
w: Carl~F.~Crusius * *||||||
 [B,=DA]2 [B,DF]2 [A,DG]2 [A,DA]2 | B8 | [CE]4 [DF]3 [CE] | z4 z2 B2 | c2 c2 d2 c2 | [FB]4 [DF]4 | %12
w: ||||||
 [FA]4 [FG]3 [FA] | [Ee]6 [Ec]2 | [Gd]2 [EG]2 [Gc]2 [GB]2 | [EA]8 |] %16
w: ||||
V:2
 [A,,A,]4 [A,,A,]3 [A,,A,] | E,4 A,4 | [D,A,]2 [D,A,]2 [D,A,]2 [D,A,]2 | [A,,A,]4 [A,,A,]4 | %4
 [G,D]4[K:treble] G3 G | [E,-E]6 [E,E]2 | B,,2 B,,2 B,,2 B,,2 | E4 z4 | [A,,A,]4 [A,,A,]3 [A,,A,] | %9
 A,6[K:treble] z2 | [A,E]2 [A,EA]2 [A,FA]2 [A,EA]2 | [D,D]4 [D,A,]4 | [=D,_C]4 [D,C]3 [D,C] | %13
 [E,C]6 [E,A,]2 | [E,B,]2 [E,D]2 [E,E]2 [E,D]2 | [A,C]8 |] %16
V:3
 x8 | A,,8 | x8 | x8 | z4[K:treble] B,2 z2 | A,4 z4 | x8 | [E,G,]8 | x8 | %9
 A,,4 z2[K:treble] [G,D]2 | x8 | x8 | x8 | x8 | x8 | x8 |] %16
V:4
 x8 | x8 | x8 | x8 | E4 z2 z B | z4 z2 A2 | x8 | z4 D4 | x8 | [CA]6 z2 | x8 | x8 | x8 | x8 | x8 | %15
 x8 |] %16
V:5
 x8 | x8 | x8 | x8 | z4 z2 D2 | z4 C4 | x8 | x8 | x8 | z4 E,4 | x8 | x8 | x8 | x8 | x8 | x8 |] %16
V:6
 x8 | x8 | x8 | x8 | E,8[K:treble] | x8 | x8 | x8 | x8 | x6[K:treble] x2 | x8 | x8 | x8 | x8 | x8 | %15
 x8 |] %16

